blockchains/ethereum/assets/0xdF574c24545E5FfEcb9a659c229253D4111d87e1/logo.svg

<svg fill="none" height="250" viewBox="0 0 250 250" width="250" xmlns="http://www.w3.org/2000/svg" xmlns:xlink="http://www.w3.org/1999/xlink"><clipPath id="a"><path d="m0 0h250v250h-250z"/></clipPath><mask id="b" height="250" maskUnits="userSpaceOnUse" width="250" x="0" y="0"><path clip-rule="evenodd" d="m0 0h250v250h-250z" fill="#fff" fill-rule="evenodd"/></mask><g clip-path="url(#a)"><path clip-rule="evenodd" d="m35.0994 115.437 38.425-91.3374 109.1496 12.575 22.35 67.4124-11.175 93.25c-16.062 17.238-26.312 25.85-30.737 25.85s-37.95-6.112-100.5876-18.337l-27.4125-67.763z" fill="#f9f9f9" fill-rule="evenodd"/><g mask="url(#b)"><path clip-rule="evenodd" d="m177.375 197.425h-26.613v-45.812c0-7.338-5.937-13.301-13.274-13.301h-.013-38.25c-14.6875 0-26.6-11.912-26.6-26.599v-59.1255h26.6v45.825c0 7.3375 5.95 13.3005 13.287 13.3005h38.25c14.688.012 26.588 11.912 26.601 26.599zm-77.225 0h-26.6125v-44.675c14.6875 0 26.5995 11.9 26.5995 26.6zm49.7-144.85h26.6v44.7c-14.7 0-26.6-11.9125-26.6-26.6zm-24.85-52.575c-69.0375 0-125 55.975-125 125s55.9625 125 125 125c69.038 0 125-55.962 125-125 0-69.0375-55.962-125-125-125z" fill="#005ffa" fill-rule="evenodd"/></g></g></svg>

<svg width="250" height="250" viewBox="0 0 250 250" fill="none" xmlns="http://www.w3.org/2000/svg">
<g clip-path="url(#clip0_30_521)">
<path fill-rule="evenodd" clip-rule="evenodd" d="M35.0994 115.437L73.5244 24.0996L182.674 36.6746L205.024 104.087L193.849 197.337C177.787 214.575 167.537 223.187 163.112 223.187C158.687 223.187 125.162 217.075 62.5244 204.85L35.1119 137.087L35.0994 115.437Z" fill="#F9F9F9"/>
<mask id="mask0_30_521" style="mask-type:alpha" maskUnits="userSpaceOnUse" x="0" y="0" width="250" height="250">
<path fill-rule="evenodd" clip-rule="evenodd" d="M0 0H250V250H0V0Z" fill="white"/>
</mask>
<g mask="url(#mask0_30_521)">
<path fill-rule="evenodd" clip-rule="evenodd" d="M177.375 197.425H150.762V151.613C150.762 144.275 144.825 138.312 137.488 138.312H137.475H99.225C84.5375 138.312 72.625 126.4 72.625 111.713V52.5875H99.225V98.4125C99.225 105.75 105.175 111.713 112.512 111.713H150.762C165.45 111.725 177.35 123.625 177.363 138.312L177.375 197.425ZM100.15 197.425H73.5375V152.75C88.225 152.75 100.137 164.65 100.137 179.35L100.15 197.425ZM149.85 52.575H176.45V97.275C161.75 97.275 149.85 85.3625 149.85 70.675V52.575ZM125 0C55.9625 0 0 55.975 0 125C0 194.025 55.9625 250 125 250C194.038 250 250 194.038 250 125C250 55.9625 194.038 0 125 0Z" fill="#005FFA"/>
</g>
</g>
<defs>
<clipPath id="clip0_30_521">
<rect width="250" height="250" fill="white"/>
</clipPath>
</defs>
</svg>
